svg/color/buc.svg

<?xml version="1.0" encoding="UTF-8" ?>
<!DOCTYPE svg PUBLIC "-//W3C//DTD SVG 1.1//EN" "http://www.w3.org/Graphics/SVG/1.1/DTD/svg11.dtd">
<svg width="250pt" height="250pt" viewBox="0 0 250 250" version="1.1" xmlns="http://www.w3.org/2000/svg">
<g id="#809facff">
<path fill="#809fac" opacity="1.00" d=" M 0.00 0.00 L 250.00 0.00 L 250.00 250.00 L 0.00 250.00 L 0.00 0.00 M 2.54 3.30 C 2.38 82.89 2.57 162.50 2.44 242.09 C 2.51 243.80 2.68 245.51 2.79 247.22 C 7.84 247.83 12.93 247.58 18.00 247.55 C 89.33 247.56 160.67 247.55 232.00 247.56 C 237.07 247.59 242.15 247.80 247.21 247.21 C 247.75 242.15 247.58 237.07 247.54 232.00 C 247.54 156.97 247.55 81.94 247.54 6.92 C 247.45 5.54 247.32 4.16 247.21 2.78 C 240.82 2.15 234.41 2.51 228.00 2.45 C 157.00 2.44 86.00 2.44 14.99 2.45 C 10.83 2.44 6.60 2.16 2.54 3.30 Z" />
</g>
<g id="#26abe3ff">
<path fill="#26abe3" opacity="1.00" d=" M 2.54 3.30 C 6.60 2.16 10.83 2.44 14.99 2.45 C 86.00 2.44 157.00 2.44 228.00 2.45 C 234.41 2.51 240.82 2.15 247.21 2.78 C 247.32 4.16 247.45 5.54 247.54 6.92 C 247.55 81.94 247.54 156.97 247.54 232.00 C 247.58 237.07 247.75 242.15 247.21 247.21 C 242.15 247.80 237.07 247.59 232.00 247.56 C 160.67 247.55 89.33 247.56 18.00 247.55 C 12.93 247.58 7.84 247.83 2.79 247.22 C 2.68 245.51 2.51 243.80 2.44 242.09 C 2.57 162.50 2.38 82.89 2.54 3.30 M 83.12 84.15 C 75.62 94.40 71.77 107.34 72.78 120.01 C 73.98 134.12 80.58 148.23 92.07 156.80 C 95.78 154.45 97.11 150.07 99.81 146.83 C 106.03 139.01 116.02 134.36 126.01 134.62 C 135.27 135.13 144.48 139.37 150.29 146.68 C 152.59 149.51 153.93 153.02 156.47 155.66 C 158.22 156.25 160.10 155.68 161.30 154.29 C 169.81 145.92 175.53 134.67 176.93 122.79 C 179.70 103.34 170.54 82.74 154.25 71.76 C 146.31 66.13 136.69 63.16 127.02 62.60 C 110.05 61.99 92.92 70.22 83.12 84.15 M 120.44 149.70 C 113.17 151.96 107.71 159.32 108.15 167.00 C 107.67 176.16 115.82 184.93 125.07 184.73 C 133.11 185.36 140.57 179.22 142.58 171.62 C 144.89 164.10 141.20 155.39 134.50 151.42 C 130.34 148.84 125.11 148.75 120.44 149.70 Z" />
<path fill="#26abe3" opacity="1.00" d=" M 120.47 96.67 C 124.71 95.89 129.39 95.68 133.32 97.72 C 139.97 100.95 144.35 108.47 143.59 115.86 C 143.01 125.06 134.47 132.99 125.20 132.59 C 116.92 132.56 109.60 125.91 107.97 117.94 C 105.94 108.99 111.78 99.36 120.47 96.67 Z" />
</g>
<g id="#fefefeff">
<path fill="#fefefe" opacity="1.00" d=" M 83.12 84.15 C 92.92 70.22 110.05 61.99 127.02 62.60 C 136.69 63.16 146.31 66.13 154.25 71.76 C 170.54 82.74 179.70 103.34 176.93 122.79 C 175.53 134.67 169.81 145.92 161.30 154.29 C 160.10 155.68 158.22 156.25 156.47 155.66 C 153.93 153.02 152.59 149.51 150.29 146.68 C 144.48 139.37 135.27 135.13 126.01 134.62 C 116.02 134.36 106.03 139.01 99.81 146.83 C 97.11 150.07 95.78 154.45 92.07 156.80 C 80.58 148.23 73.98 134.12 72.78 120.01 C 71.77 107.34 75.62 94.40 83.12 84.15 M 120.47 96.67 C 111.78 99.36 105.94 108.99 107.97 117.94 C 109.60 125.91 116.92 132.56 125.20 132.59 C 134.47 132.99 143.01 125.06 143.59 115.86 C 144.35 108.47 139.97 100.95 133.32 97.72 C 129.39 95.68 124.71 95.89 120.47 96.67 Z" />
<path fill="#fefefe" opacity="1.00" d=" M 120.44 149.70 C 125.11 148.75 130.34 148.84 134.50 151.42 C 141.20 155.39 144.89 164.10 142.58 171.62 C 140.57 179.22 133.11 185.36 125.07 184.73 C 115.82 184.93 107.67 176.16 108.15 167.00 C 107.71 159.32 113.17 151.96 120.44 149.70 Z" />
</g>
</svg>

<?xml version="1.0" encoding="utf-8"?>
<!-- Generator: Adobe Illustrator 26.0.3, SVG Export Plug-In . SVG Version: 6.00 Build 0)  -->
<svg version="1.1" id="Layer_1" xmlns="http://www.w3.org/2000/svg" xmlns:xlink="http://www.w3.org/1999/xlink" x="0px" y="0px"
	 viewBox="0 0 250 250" style="enable-background:new 0 0 250 250;" xml:space="preserve">
<style type="text/css">
	.st0{fill:#26ABE3;}
	.st1{fill:#FEFEFE;}
</style>
<circle class="st0" cx="125" cy="125.5" r="125"/>
<g id="_x23_26abe3ff">
	<path class="st0" d="M120.5,96.7c4.2-0.8,8.9-1,12.9,1.1c6.6,3.2,11,10.8,10.3,18.1c-0.6,9.2-9.1,17.1-18.4,16.7
		c-8.3,0-15.6-6.7-17.2-14.6C105.9,109,111.8,99.4,120.5,96.7z"/>
</g>
<g id="_x23_fefefeff">
	<path class="st1" d="M83.1,84.2C92.9,70.2,110.1,62,127,62.6c9.7,0.6,19.3,3.5,27.2,9.2c16.3,11,25.4,31.6,22.7,51
		c-1.4,11.9-7.1,23.1-15.6,31.5c-1.2,1.4-3.1,2-4.8,1.4c-2.5-2.6-3.9-6.2-6.2-9c-5.8-7.3-15-11.5-24.3-12.1
		c-10-0.3-20,4.4-26.2,12.2c-2.7,3.2-4,7.6-7.7,10C80.6,148.2,74,134.1,72.8,120C71.8,107.3,75.6,94.4,83.1,84.2 M120.5,96.7
		c-8.7,2.7-14.5,12.3-12.5,21.3c1.6,8,8.9,14.6,17.2,14.6c9.3,0.4,17.8-7.5,18.4-16.7c0.8-7.4-3.6-14.9-10.3-18.1
		C129.4,95.7,124.7,95.9,120.5,96.7z"/>
	<path class="st1" d="M120.4,149.7c4.7-0.9,9.9-0.9,14.1,1.7c6.7,4,10.4,12.7,8.1,20.2c-2,7.6-9.5,13.7-17.5,13.1
		c-9.2,0.2-17.4-8.6-16.9-17.7C107.7,159.3,113.2,152,120.4,149.7z"/>
</g>
</svg>
